X: 1
T: Left Handed Fiddler, The
M: 4/4
L: 1/8
R: reel
K: Amaj
d | cAce {g}a2(ed) | cAEA GBBd | cAce aefd | ecdB cAAd |
cAce {g}a2 (ed) | cAEA GBBG | AcBd cedf | ecdB cAAg |
~a2 (Aa) caAa | caAa BcdB | ~a2 (Aa) caAa | BcdB cAAg |
~a2 (Aa) caAa | caAa BcdB | AEcA dBec | fdge aA [A2E2] ||
